X:1
T:PM Ross's Farewell to 2nd Batt Scot's Guards  "rpband"
M:C|
L:1/8
Q:80
C:
S:2/4 March
K:HP
|: {g}A3/4d/4|
{gfg}f2{g}f3/4e/4{g}f/4a3/4|
{g}g{BG}B{gcd}c3/2B/2|  !
{g}A{Gdc}d{gfg}f3/4e/4{g}f/4a3/4|
{ef}e2{A}e{g}A3/4d/4|
{gfg}f2{g}f3/4e/4{g}f/4a3/4|  !
{g}g{BG}B{gcd}c3/2B/2|
{g}A{ag}a{f}g3/4e/4{g}B3/4c/4|
{Gdc}d2{gdc}d:| |:  !
{g}c3/4d/4|
{gef}e2{A}e{g}A3/4d/4|
{gfg}f2{e}f3/2e/2|  !
{Gdc}d3/2e/2{gfg}f{ag}a|
{ef}e2{A}ea3/4g/4|
{fg}fA{gfg}f3/4e/4{g}f/4a3/4|  !
{g}g{BG}B{gcd}c3/2B/2|
{g}A{ag}a{f}g3/4e/4{g}B3/4c/4|
{Gdc}d2{gdc}d:|  !

